X:15911
T:Stage Hornpipe,The. BF13.017
M:2/2
L:1/8
Q:150
S:J.Lishman()MS,c1825,Lakes,Browne Coll.
R:Hornpipe
O:England
A:Lakes
N:No time signature given
Z:vmp.Cherri Graebe.
K:F major
cB|AcBG AFGE|F2F2F2af|efgf edcB|BGABG2(cB)|!
AcBG AFGE|F2a2a2 gf|egec dfdB |c2c2c2:|!
|:(cB)|Acfc afcA|B2g2g2(BA)|GABG gfcB|A2f2f2(gf)|!
egec fafd|egec fcAF|BdcB "crots in ms"AGFE|F2F2F2:||
